src/cmd/sc_getinvolved.svg

<?xml version="1.0" encoding="UTF-8" standalone="no"?>
<svg
   xmlns:dc="http://purl.org/dc/elements/1.1/"
   xmlns:cc="http://creativecommons.org/ns#"
   xmlns:rdf="http://www.w3.org/1999/02/22-rdf-syntax-ns#"
   xmlns:svg="http://www.w3.org/2000/svg"
   xmlns="http://www.w3.org/2000/svg"
   xmlns:sodipodi="http://sodipodi.sourceforge.net/DTD/sodipodi-0.dtd"
   xmlns:inkscape="http://www.inkscape.org/namespaces/inkscape"
   viewBox="0 0 16 16"
   version="1.1"
   id="svg4"
   sodipodi:docname="sc_getinvolved.svg"
   inkscape:export-filename="/home/jupiter007/Libreoffice yaru theme fullcolor/build/cmd/sc_getinvolved.png"
   inkscape:export-xdpi="95"
   inkscape:export-ydpi="95"
   inkscape:version="0.92.5 (2060ec1f9f, 2020-04-08)">
  <metadata
     id="metadata10">
    <rdf:RDF>
      <cc:Work
         rdf:about="">
        <dc:format>image/svg+xml</dc:format>
        <dc:type
           rdf:resource="http://purl.org/dc/dcmitype/StillImage" />
      </cc:Work>
    </rdf:RDF>
  </metadata>
  <defs
     id="defs8" />
  <sodipodi:namedview
     pagecolor="#ffffff"
     bordercolor="#666666"
     borderopacity="1"
     objecttolerance="10"
     gridtolerance="10"
     guidetolerance="10"
     inkscape:pageopacity="0"
     inkscape:pageshadow="2"
     inkscape:window-width="1920"
     inkscape:window-height="1011"
     id="namedview6"
     showgrid="true"
     inkscape:zoom="29.5"
     inkscape:cx="3.7727468"
     inkscape:cy="6.7941864"
     inkscape:window-x="0"
     inkscape:window-y="32"
     inkscape:window-maximized="1"
     inkscape:current-layer="svg4">
    <inkscape:grid
       type="xygrid"
       id="grid817" />
  </sodipodi:namedview>
  <path
     d="M 10.5,2 C 9.1192881,2 8,3.1192881 8,4.5 8,5.8807119 9.1192881,7 10.5,7 11.880712,7 13,5.8807119 13,4.5 13,3.1192881 11.880712,2 10.5,2 Z m 0,6 C 8.5670037,7.9999987 7,9.79086 7,12 h 1 5 1 C 14,9.79086 12.432996,7.9999987 10.5,8 Z"
     id="path821"
     inkscape:connector-curvature="0"
     style="opacity:0.6;fill:#000000;fill-opacity:1;stroke:#000000;stroke-width:2;stroke-linejoin:round;stroke-miterlimit:4;stroke-dasharray:none"
     sodipodi:nodetypes="ssssscccccc" />
  <path
     sodipodi:nodetypes="ssssscccccc"
     style="fill:#aee3f8;fill-opacity:1"
     inkscape:connector-curvature="0"
     id="path823"
     d="M 10.5,2 C 9.1192881,2 8,3.1192881 8,4.5 8,5.8807119 9.1192881,7 10.5,7 11.880712,7 13,5.8807119 13,4.5 13,3.1192881 11.880712,2 10.5,2 Z m 0,6 C 8.5670037,7.9999987 7,9.79086 7,12 h 1 5 1 C 14,9.79086 12.432996,7.9999987 10.5,8 Z" />
  <path
     sodipodi:nodetypes="ssssscccccc"
     style="fill:#000000;fill-opacity:1;stroke:#000000;opacity:0.6;stroke-width:2;stroke-miterlimit:4;stroke-dasharray:none;stroke-linejoin:round"
     inkscape:connector-curvature="0"
     id="path819"
     d="M 5.5,4 C 4.1192881,4 3,5.1192881 3,6.5 3,7.8807119 4.1192881,9 5.5,9 6.8807119,9 8,7.8807119 8,6.5 8,5.1192881 6.8807119,4 5.5,4 Z m 0,6 C 3.5670037,9.9999987 2,11.79086 2,14 H 3 8 9 C 9,11.79086 7.4329963,9.9999987 5.5,10 Z" />
  <path
     d="M 5.5,4 C 4.1192881,4 3,5.1192881 3,6.5 3,7.8807119 4.1192881,9 5.5,9 6.8807119,9 8,7.8807119 8,6.5 8,5.1192881 6.8807119,4 5.5,4 Z m 0,6 C 3.5670037,9.9999987 2,11.79086 2,14 H 3 8 9 C 9,11.79086 7.4329963,9.9999987 5.5,10 Z"
     id="path2"
     inkscape:connector-curvature="0"
     style="fill:#aee3f8;fill-opacity:1"
     sodipodi:nodetypes="ssssscccccc" />
</svg>

<svg viewBox="0 0 16 16" xmlns="http://www.w3.org/2000/svg"><path d="m11.5 2a2.5 2.5 0 0 0 -2.5 2.5 2.5 2.5 0 0 0 2.5 2.5 2.5 2.5 0 0 0 2.5-2.5 2.5 2.5 0 0 0 -2.5-2.5zm-6 2a2.5 2.5 0 0 0 -2.5 2.5 2.5 2.5 0 0 0 2.5 2.5 2.5 2.5 0 0 0 2.5-2.5 2.5 2.5 0 0 0 -2.5-2.5zm6.146484 4a3.4999979 4 0 0 0 -3.1542965 2.273438 4.5 5 0 0 1 1.125 1.726562h4.5292965 1a3.4999979 4 0 0 0 -3.5-4zm0 1a2.5 3 0 0 1 2.353516 2h-4.7070312a2.5 3 0 0 1 2.3535152-2zm-6.146484 1a3.4999979 4 0 0 0 -3.5 4h1 5 1a3.4999979 4 0 0 0 -3.5-4zm0 1a2.5 3 0 0 1 2.3535156 2h-4.7070312a2.5 3 0 0 1 2.3535156-2z" fill="#232629"/></svg>
